Simply-Cyan-Circles/scalable/apps/gmusicbrowser.svg

<svg xmlns="http://www.w3.org/2000/svg" width="48" height="48" viewBox="0 0 12.7 12.7"><path fill="#5beedc" d="M6.344.073a6.29 6.29 0 0 0-6.29 6.29 6.29 6.29 0 0 0 6.29 6.288 6.29 6.29 0 0 0 6.29-6.289 6.29 6.29 0 0 0-6.29-6.29zm-.018.936a5.407 5.407 0 0 1 5.407 5.407 5.407 5.407 0 0 1-5.407 5.407A5.407 5.407 0 0 1 .92 6.416 5.407 5.407 0 0 1 6.326 1.01zm1.202.744v.001c-.235-.023-.109.255-.14.398-.003 2.023.005 4.046-.003 6.07-.037.192-.264.155-.4.119-.856-.076-1.81.517-1.931 1.412-.128.674.558 1.254 1.196 1.19.878-.05 1.583-.94 1.465-1.812.002-1.636-.004-3.272.003-4.908.03-.18.263-.19.37-.074.808.463 1.533 1.237 1.597 2.212.035.193-.026.673-.012.679.282-1.055-.009-2.265-.813-3.016-.578-.616-1.088-1.42-1.187-2.247a.318.318 0 0 0-.145-.024zM6.16 5.5a3.794 3.794 0 0 0-3.734 3.734h.657a3.136 3.136 0 0 1 3.077-3.073V5.5zm0 1.511a2.28 2.28 0 0 0-2.222 2.223h.59A1.69 1.69 0 0 1 6.16 7.602v-.59z"/></svg>

<?xml version="1.0" encoding="UTF-8" standalone="no"?>
<svg
   xmlns:dc="http://purl.org/dc/elements/1.1/"
   xmlns:cc="http://creativecommons.org/ns#"
   xmlns:rdf="http://www.w3.org/1999/02/22-rdf-syntax-ns#"
   xmlns:svg="http://www.w3.org/2000/svg"
   xmlns="http://www.w3.org/2000/svg"
   xmlns:sodipodi="http://sodipodi.sourceforge.net/DTD/sodipodi-0.dtd"
   xmlns:inkscape="http://www.inkscape.org/namespaces/inkscape"
   width="48"
   height="48"
   viewBox="0 0 12.7 12.7"
   version="1.1"
   id="svg4"
   sodipodi:docname="gmusicbrowser.svg"
   inkscape:version="0.92.4 (5da689c313, 2019-01-14)">
  <metadata
     id="metadata10">
    <rdf:RDF>
      <cc:Work
         rdf:about="">
        <dc:format>image/svg+xml</dc:format>
        <dc:type
           rdf:resource="http://purl.org/dc/dcmitype/StillImage" />
        <dc:title></dc:title>
      </cc:Work>
    </rdf:RDF>
  </metadata>
  <defs
     id="defs8" />
  <sodipodi:namedview
     pagecolor="#ffffff"
     bordercolor="#666666"
     borderopacity="1"
     objecttolerance="10"
     gridtolerance="10"
     guidetolerance="10"
     inkscape:pageopacity="0"
     inkscape:pageshadow="2"
     inkscape:window-width="1087"
     inkscape:window-height="480"
     id="namedview6"
     showgrid="false"
     inkscape:zoom="4.9166667"
     inkscape:cx="2.1355932"
     inkscape:cy="24"
     inkscape:window-x="0"
     inkscape:window-y="25"
     inkscape:window-maximized="0"
     inkscape:current-layer="svg4" />
  <path
     d="m 6.344,0.073 a 6.29,6.29 0 0 0 -6.29,6.29 6.29,6.29 0 0 0 6.29,6.288 6.29,6.29 0 0 0 6.29,-6.289 6.29,6.29 0 0 0 -6.29,-6.29 z M 6.326,1.009 A 5.407,5.407 0 0 1 11.733,6.416 5.407,5.407 0 0 1 6.326,11.823 5.407,5.407 0 0 1 0.92,6.416 5.407,5.407 0 0 1 6.326,1.01 Z M 7.528,1.753 V 1.754 C 7.293,1.731 7.419,2.009 7.388,2.152 7.385,4.175 7.393,6.198 7.385,8.222 7.348,8.414 7.121,8.377 6.985,8.341 6.129,8.265 5.175,8.858 5.054,9.753 4.926,10.427 5.612,11.007 6.25,10.943 7.128,10.893 7.833,10.003 7.715,9.131 7.717,7.495 7.711,5.859 7.718,4.223 7.748,4.043 7.981,4.033 8.088,4.149 8.896,4.612 9.621,5.386 9.685,6.361 9.72,6.554 9.659,7.034 9.673,7.04 9.955,5.985 9.664,4.775 8.86,4.024 8.282,3.408 7.772,2.604 7.673,1.777 A 0.318,0.318 0 0 0 7.528,1.753 Z M 6.16,5.5 A 3.794,3.794 0 0 0 2.426,9.234 H 3.083 A 3.136,3.136 0 0 1 6.16,6.161 Z m 0,1.511 A 2.28,2.28 0 0 0 3.938,9.234 h 0.59 A 1.69,1.69 0 0 1 6.16,7.602 v -0.59 z"
     id="path2"
     inkscape:connector-curvature="0"
     style="fill:#5beedc" />
</svg>
